city-variant-outline.svg

<svg fill="currentColor" viewBox="0 0 24 24"><path d="M15 23h-2v-2h2zm4-2h-2v2h2zm-4-4h-2v2h2zm-8 4H5v2h2zm0-4H5v2h2zm12 0h-2v2h2zm-4-4h-2v2h2zm4 0h-2v2h2zm2-4a2 2 0 0 1 2 2v12h-2V11H11v12H9v-8H3v8H1v-8a2 2 0 0 1 2-2h6v-2a2 2 0 0 1 2-2V7a2 2 0 0 1 2-2h2V1h2v4h2a2 2 0 0 1 2 2zm-2 0V7h-6v2z"/></svg>

<svg  viewBox="0 0 24 24" fill="currentColor"><path  d="M15,23H13V21H15V23M19,21H17V23H19V21M15,17H13V19H15V17M7,21H5V23H7V21M7,17H5V19H7V17M19,17H17V19H19V17M15,13H13V15H15V13M19,13H17V15H19V13M21,9A2,2 0 0,1 23,11V23H21V11H11V23H9V15H3V23H1V15A2,2 0 0,1 3,13H9V11A2,2 0 0,1 11,9V7A2,2 0 0,1 13,5H15V1H17V5H19A2,2 0 0,1 21,7V9M19,9V7H13V9H19Z"/></svg>
